X: 56
T: No_149_Fox_Dance_Song_(d).krn
N: Derived from No_149_Fox_Dance_Song_(d).krn
%%abc-version 2.0
%%abcx-abcm2ps-target-version 5.9.1 (29 Sep 2008)
%%abc-creator hum2abc beta
%%abcx-conversion-date 2019/03/15 08:38:45
%%humdrum-veritas 161651851
%%humdrum-veritas-data 3263046242
%%linebreak <none>
%%barnumbers 0
L: 1/8
M: 2/4
K: G clef=bass
[K:clef=bass][M:2/4]z2G,2 | 
G,2(E,D,) ]|:  
G,4- | 
G, zA,2 | 
G,2(E,D,) | 
!fermata!D,2D,2 | 
D,/D,3/B,,2 | 
!fermata!B,, zD,2 | 
D,2E,2 ||  
[M:3/4]D,4D,2 ||  
[M:2/4]D,/D,3/B,,2 | 
B,, zA,2 | 
A,2A,A, :|]  
B,, zG,2 | 
G,2E,D, :|]  
B,,2z2 |]  



